X:1
T:Title
%%score { 1 | 2 }
L:1/8
M:3/4
K:G
V:1 treble nm="Grand Piano"
V:2 bass 
V:1
 z2 z2[Q:1/4=100] D2 | G>G G2 [FA]2 | B>B B2 B2 | d3 G FG | [FA]4 [FA]2 | [Ac]>[Ac] [Ac]2 [GB]2 | %6
 [FA]>[FA] [FA]2 [DF]2 | [FA]>[EG] [DF]2 [^CE]2 | D4 D2 | F>F F2 [EG]2 | [FA]>[FA] [FA]2 [GB]2 | %11
 [Ac]3 [GB] [FA]G | [FA]4 B2 | d>d c2 B2 | [CEA]>[D^GB] [EAc]2 [CEA]2 | %15
 [B,DG]>[B,DG] [DGB]2 [CDA]2 |[M:2/4] [B,DG]4 |] %17
V:2
 z2 z2 [G,B,]2 | [G,B,D]>[G,B,D] [G,B,D]2 [D,D]2 | [G,DG]>[G,DG] [G,DG]2 [G,DG]2 | %3
 [G,B,G]3[K:bass] [B,D] [A,CD][G,B,D] | [D,D]4 [D,D]2 | [D,D]>[D,D] [D,D]2 [D,D]2 | %6
 [D,D]>[D,D] [D,D]2 [D,A,]2 | [A,,A,]>[A,,A,] [A,,A,]2 [A,,G,]2 | [D,F,]4 [D,F,]2 | %9
 [D,A,D]>[D,A,D] [D,A,D]2 [D,A,]2 | [D,D]>[D,D] [D,D]2 [D,D]2 | [D,D]3 [D,D] [D,C][E,B,] | %12
 [D,D]4[K:treble] [G,DG]2 | [G,B,G]>[G,B,G][K:bass] [F,A,D]2 [G,D]2 | C,>B,, A,,2 C,2 | %15
 D,>D, D,2 D,2 |[M:2/4] G,,4 |] %17

